icons/tw.svg

<?xml version="1.0" ?>
<svg xmlns="http://www.w3.org/2000/svg" xmlns:ev="http://www.w3.org/2001/xml-events" xmlns:xlink="http://www.w3.org/1999/xlink" baseProfile="full" height="600px" version="1.1" viewBox="915.7675363723476 -1033.071642033901 8409.271559787534 12297.662110275773" width="411px">
	<defs/>
	<path d="M 7315.0,10231.0 C 7250.0,10222.0 7227.0,10209.0 7135.0,10126.0 C 7084.0,10080.0 7050.0,10040.0 7031.0,10001.0 C 7015.0,9970.0 6990.0,9934.0 6976.0,9921.0 C 6952.0,9899.0 6952.0,9896.0 6968.0,9885.0 C 6977.0,9878.0 7002.0,9867.0 7023.0,9861.0 C 7047.0,9853.0 7066.0,9838.0 7075.0,9820.0 C 7101.0,9770.0 7088.0,9766.0 7040.0,9806.0 C 7017.0,9826.0 6998.0,9832.0 6962.0,9833.0 C 6921.0,9834.0 6902.0,9826.0 6839.0,9788.0 C 6769.0,9744.0 6759.0,9741.0 6660.0,9730.0 C 6492.0,9713.0 6453.0,9702.0 6305.0,9630.0 C 6228.0,9592.0 6147.0,9556.0 6125.0,9550.0 C 6037.0,9523.0 5992.0,9492.0 5951.0,9431.0 C 5929.0,9399.0 5899.0,9343.0 5885.0,9308.0 C 5867.0,9264.0 5844.0,9228.0 5810.0,9195.0 C 5775.0,9160.0 5760.0,9138.0 5760.0,9119.0 C 5760.0,9104.0 5746.0,9076.0 5729.0,9054.0 C 5668.0,8979.0 5580.0,8756.0 5580.0,8678.0 C 5580.0,8668.0 5560.0,8638.0 5536.0,8612.0 C 5484.0,8557.0 5420.0,8430.0 5420.0,8384.0 C 5420.0,8353.0 5419.0,8352.0 5367.0,8348.0 C 5284.0,8341.0 5221.0,8305.0 5185.0,8244.0 C 5168.0,8215.0 5135.0,8177.0 5111.0,8159.0 C 5078.0,8132.0 5060.0,8107.0 5031.0,8040.0 C 4988.0,7942.0 4940.0,7864.0 4819.0,7700.0 C 4703.0,7541.0 4680.0,7505.0 4680.0,7474.0 C 4680.0,7459.0 4662.0,7415.0 4641.0,7376.0 C 4619.0,7337.0 4585.0,7267.0 4565.0,7220.0 C 4545.0,7173.0 4516.0,7115.0 4500.0,7090.0 C 4484.0,7065.0 4463.0,7011.0 4453.0,6971.0 C 4437.0,6903.0 4431.0,6894.0 4384.0,6853.0 C 4347.0,6821.0 4329.0,6797.0 4321.0,6767.0 C 4314.0,6744.0 4288.0,6684.0 4263.0,6634.0 C 4224.0,6556.0 4212.0,6540.0 4174.0,6521.0 C 4138.0,6502.0 4125.0,6486.0 4099.0,6431.0 C 4082.0,6395.0 4055.0,6329.0 4040.0,6285.0 C 4025.0,6241.0 3990.0,6160.0 3963.0,6105.0 C 3935.0,6050.0 3902.0,5976.0 3889.0,5941.0 C 3870.0,5889.0 3856.0,5871.0 3822.0,5846.0 C 3793.0,5825.0 3762.0,5788.0 3731.0,5735.0 C 3629.0,5563.0 3630.0,5566.0 3630.0,5496.0 C 3630.0,5431.0 3630.0,5430.0 3603.0,5430.0 C 3546.0,5429.0 3460.0,5243.0 3460.0,5120.0 C 3460.0,5090.0 3472.0,5009.0 3486.0,4940.0 C 3504.0,4855.0 3513.0,4788.0 3512.0,4731.0 C 3511.0,4676.0 3517.0,4620.0 3530.0,4569.0 C 3555.0,4473.0 3555.0,4465.0 3530.0,4430.0 C 3519.0,4414.0 3503.0,4383.0 3495.0,4361.0 L 3481.0,4321.0 L 3511.0,4311.0 C 3527.0,4306.0 3540.0,4296.0 3540.0,4291.0 C 3540.0,4285.0 3520.0,4253.0 3496.0,4220.0 C 3471.0,4187.0 3442.0,4134.0 3430.0,4102.0 C 3418.0,4071.0 3399.0,4037.0 3387.0,4028.0 C 3368.0,4013.0 3365.0,4002.0 3365.0,3926.0 C 3365.0,3854.0 3362.0,3838.0 3344.0,3818.0 C 3332.0,3805.0 3320.0,3782.0 3316.0,3766.0 C 3310.0,3740.0 3314.0,3732.0 3352.0,3699.0 L 3395.0,3661.0 L 3363.0,3660.0 C 3342.0,3660.0 3326.0,3653.0 3315.0,3638.0 C 3300.0,3615.0 3300.0,3615.0 3344.0,3605.0 C 3368.0,3600.0 3392.0,3592.0 3396.0,3588.0 C 3411.0,3573.0 3366.0,3541.0 3314.0,3529.0 L 3261.0,3517.0 L 3275.0,3491.0 C 3307.0,3430.0 3311.0,3428.0 3364.0,3441.0 C 3408.0,3452.0 3414.0,3451.0 3426.0,3435.0 C 3434.0,3424.0 3440.0,3396.0 3440.0,3372.0 C 3440.0,3331.0 3442.0,3328.0 3463.0,3334.0 C 3475.0,3337.0 3491.0,3340.0 3498.0,3340.0 C 3505.0,3340.0 3518.0,3356.0 3527.0,3375.0 L 3544.0,3410.0 L 3572.0,3383.0 C 3598.0,3358.0 3599.0,3354.0 3593.0,3284.0 C 3584.0,3175.0 3606.0,3030.0 3646.0,2938.0 C 3674.0,2873.0 3680.0,2845.0 3686.0,2750.0 L 3693.0,2638.0 L 3763.0,2517.0 L 3833.0,2395.0 L 3822.0,2320.0 L 3812.0,2246.0 L 3848.0,2183.0 C 3875.0,2138.0 3893.0,2118.0 3915.0,2110.0 C 3963.0,2094.0 4019.0,2020.0 4032.0,1955.0 C 4041.0,1907.0 4052.0,1890.0 4117.0,1820.0 C 4186.0,1746.0 4195.0,1740.0 4231.0,1740.0 C 4287.0,1740.0 4376.0,1692.0 4435.0,1628.0 C 4463.0,1599.0 4537.0,1541.0 4601.0,1500.0 C 4716.0,1426.0 4717.0,1424.0 4735.0,1370.0 C 4747.0,1331.0 4767.0,1299.0 4805.0,1260.0 C 4868.0,1194.0 4999.0,957.0 5041.0,831.0 C 5079.0,720.0 5081.0,610.0 5048.0,547.0 C 5029.0,511.0 5026.0,490.0 5027.0,410.0 C 5028.0,323.0 5031.0,309.0 5064.0,240.0 C 5084.0,199.0 5100.0,151.0 5100.0,133.0 C 5100.0,101.0 5101.0,100.0 5144.0,100.0 C 5181.0,100.0 5192.0,105.0 5209.0,127.0 L 5229.0,155.0 L 5269.0,132.0 C 5291.0,120.0 5318.0,110.0 5330.0,110.0 C 5360.0,110.0 5386.0,95.0 5449.0,42.0 L 5502.0,-4.0 L 5496.0,41.0 C 5476.0,183.0 5477.0,207.0 5502.0,242.0 C 5516.0,260.0 5546.0,311.0 5570.0,354.0 C 5610.0,430.0 5612.0,436.0 5606.0,494.0 C 5592.0,615.0 5589.0,1143.0 5600.0,1265.0 C 5611.0,1381.0 5613.0,1388.0 5675.0,1520.0 C 5727.0,1629.0 5742.0,1673.0 5755.0,1750.0 C 5774.0,1865.0 5783.0,1895.0 5823.0,1983.0 C 5851.0,2046.0 5856.0,2051.0 5896.0,2061.0 L 5939.0,2072.0 L 5954.0,2141.0 C 5963.0,2178.0 5970.0,2216.0 5970.0,2224.0 C 5970.0,2233.0 5999.0,2262.0 6033.0,2290.0 C 6068.0,2318.0 6104.0,2356.0 6113.0,2374.0 C 6125.0,2399.0 6149.0,2419.0 6207.0,2451.0 C 6312.0,2509.0 6373.0,2568.0 6416.0,2652.0 C 6442.0,2704.0 6450.0,2734.0 6450.0,2773.0 C 6450.0,2824.0 6451.0,2826.0 6503.0,2867.0 C 6574.0,2922.0 6642.0,3026.0 6742.0,3230.0 C 6787.0,3321.0 6832.0,3408.0 6843.0,3423.0 C 6854.0,3439.0 6866.0,3469.0 6871.0,3491.0 C 6877.0,3515.0 6895.0,3546.0 6919.0,3570.0 C 6980.0,3633.0 7038.0,3729.0 7045.0,3781.0 C 7049.0,3808.0 7047.0,3851.0 7040.0,3883.0 C 7021.0,3965.0 7054.0,4091.0 7130.0,4230.0 C 7186.0,4333.0 7187.0,4338.0 7204.0,4470.0 C 7216.0,4561.0 7234.0,4646.0 7261.0,4729.0 C 7283.0,4799.0 7300.0,4873.0 7300.0,4899.0 C 7300.0,4924.0 7310.0,4970.0 7322.0,5000.0 C 7336.0,5038.0 7346.0,5091.0 7351.0,5170.0 C 7366.0,5392.0 7371.0,5422.0 7403.0,5485.0 C 7428.0,5536.0 7434.0,5561.0 7440.0,5650.0 C 7445.0,5733.0 7453.0,5771.0 7477.0,5830.0 C 7522.0,5940.0 7560.0,6066.0 7560.0,6104.0 C 7560.0,6142.0 7611.0,6299.0 7634.0,6332.0 C 7659.0,6367.0 7655.0,6428.0 7626.0,6451.0 C 7594.0,6476.0 7576.0,6532.0 7585.0,6578.0 C 7589.0,6597.0 7609.0,6651.0 7631.0,6695.0 C 7656.0,6747.0 7670.0,6792.0 7670.0,6816.0 C 7670.0,6847.0 7679.0,6867.0 7716.0,6913.0 C 7742.0,6945.0 7770.0,6970.0 7780.0,6970.0 C 7812.0,6970.0 7830.0,6982.0 7830.0,7002.0 C 7830.0,7028.0 7934.0,7197.0 7970.0,7230.0 C 7985.0,7244.0 8003.0,7266.0 8010.0,7279.0 C 8020.0,7299.0 8020.0,7305.0 8007.0,7314.0 C 7994.0,7324.0 7995.0,7341.0 8017.0,7460.0 C 8031.0,7534.0 8044.0,7605.0 8046.0,7618.0 C 8049.0,7630.0 8081.0,7672.0 8117.0,7711.0 L 8184.0,7782.0 L 8182.0,7854.0 L 8179.0,7925.0 L 8217.0,7945.0 C 8244.0,7960.0 8254.0,7971.0 8252.0,7985.0 C 8251.0,7996.0 8247.0,8037.0 8243.0,8077.0 L 8237.0,8148.0 L 8266.0,8152.0 C 8291.0,8155.0 8285.0,8159.0 8229.0,8178.0 L 8163.0,8201.0 L 8145.0,8261.0 C 8129.0,8313.0 8128.0,8330.0 8138.0,8398.0 C 8147.0,8452.0 8147.0,8485.0 8140.0,8510.0 C 8127.0,8556.0 8100.0,8759.0 8100.0,8816.0 C 8100.0,8875.0 8135.0,8942.0 8199.0,9005.0 C 8240.0,9045.0 8250.0,9061.0 8250.0,9088.0 C 8250.0,9163.0 8343.0,9246.0 8472.0,9286.0 C 8542.0,9308.0 8560.0,9319.0 8588.0,9352.0 C 8605.0,9374.0 8620.0,9400.0 8620.0,9410.0 C 8620.0,9428.0 8599.0,9433.0 8460.0,9443.0 C 8428.0,9445.0 8422.0,9450.0 8397.0,9501.0 C 8382.0,9532.0 8365.0,9584.0 8360.0,9617.0 C 8349.0,9696.0 8328.0,9737.0 8293.0,9744.0 C 8277.0,9748.0 8215.0,9754.0 8154.0,9759.0 C 8069.0,9766.0 8033.0,9773.0 7994.0,9793.0 C 7967.0,9806.0 7916.0,9828.0 7880.0,9840.0 C 7815.0,9863.0 7730.0,9929.0 7730.0,9957.0 C 7730.0,9969.0 7714.0,9975.0 7666.0,9982.0 C 7652.0,9984.0 7631.0,10016.0 7597.0,10084.0 C 7550.0,10179.0 7546.0,10183.0 7493.0,10207.0 C 7432.0,10235.0 7388.0,10241.0 7315.0,10231.0" fill="pink"/>
	<path d="M 1904.0,5335.0 C 1877.0,5316.0 1883.0,5276.0 1916.0,5262.0 C 1929.0,5256.0 1950.0,5235.0 1962.0,5215.0 C 1975.0,5196.0 1988.0,5180.0 1991.0,5180.0 C 2000.0,5180.0 2020.0,5262.0 2020.0,5295.0 C 2020.0,5315.0 2012.0,5324.0 1985.0,5336.0 C 1942.0,5354.0 1930.0,5354.0 1904.0,5335.0" fill="pink"/>
	<path d="M 1711.0,5202.0 C 1696.0,5179.0 1685.0,5145.0 1682.0,5113.0 C 1678.0,5062.0 1676.0,5060.0 1649.0,5060.0 C 1618.0,5060.0 1614.0,5050.0 1630.0,5021.0 C 1638.0,5005.0 1645.0,5004.0 1686.0,5013.0 C 1743.0,5026.0 1757.0,5046.0 1781.0,5148.0 C 1804.0,5246.0 1805.0,5240.0 1768.0,5240.0 C 1741.0,5240.0 1730.0,5233.0 1711.0,5202.0" fill="pink"/>
	<path d="M 2002.0,5127.0 C 1960.0,5114.0 1907.0,5041.0 1912.0,5002.0 C 1914.0,4980.0 1921.0,4974.0 1945.0,4972.0 C 1972.0,4969.0 1989.0,4956.0 1990.0,4940.0 C 1990.0,4937.0 1960.0,4936.0 1924.0,4938.0 L 1858.0,4942.0 L 1865.0,4909.0 C 1878.0,4849.0 1887.0,4840.0 1933.0,4840.0 C 1983.0,4840.0 2025.0,4864.0 2077.0,4920.0 C 2120.0,4968.0 2152.0,4987.0 2209.0,4996.0 C 2245.0,5002.0 2250.0,5006.0 2250.0,5029.0 C 2250.0,5050.0 2241.0,5061.0 2211.0,5078.0 C 2190.0,5090.0 2158.0,5100.0 2140.0,5100.0 C 2123.0,5100.0 2097.0,5109.0 2083.0,5120.0 C 2055.0,5142.0 2050.0,5143.0 2002.0,5127.0" fill="pink"/>
	<path d="M 7197.0,2354.0 C 7193.0,2350.0 7190.0,2332.0 7190.0,2315.0 C 7190.0,2289.0 7198.0,2278.0 7235.0,2251.0 C 7287.0,2214.0 7291.0,2217.0 7294.0,2303.0 L 7295.0,2355.0 L 7250.0,2358.0 C 7225.0,2360.0 7201.0,2358.0 7197.0,2354.0" fill="pink"/>
	<path d="M 7425.0,549.0 C 7363.0,539.0 7332.0,523.0 7324.0,497.0 C 7319.0,481.0 7333.0,461.0 7392.0,404.0 C 7467.0,330.0 7500.0,313.0 7545.0,324.0 C 7577.0,332.0 7578.0,369.0 7548.0,419.0 C 7535.0,438.0 7520.0,477.0 7515.0,505.0 C 7503.0,560.0 7500.0,562.0 7425.0,549.0" fill="pink"/>
</svg>

<?xml version="1.0" standalone="no"?>
<!DOCTYPE svg PUBLIC "-//W3C//DTD SVG 20010904//EN"
 "http://www.w3.org/TR/2001/REC-SVG-20010904/DTD/svg10.dtd">
<svg version="1.0" xmlns="http://www.w3.org/2000/svg"
 width="1024.000000pt" height="1024.000000pt" viewBox="0 0 1024.000000 1024.000000"
 preserveAspectRatio="xMidYMid meet">
<metadata>
Created by potrace 1.10, written by Peter Selinger 2001-2011
</metadata>
<g transform="translate(0.000000,1024.000000) scale(0.100000,-0.100000)"
fill="#000000" stroke="none">
<path d="M7315 10231 c-65 -9 -88 -22 -180 -105 -51 -46 -85 -86 -104 -125
-16 -31 -41 -67 -55 -80 -24 -22 -24 -25 -8 -36 9 -7 34 -18 55 -24 24 -8 43
-23 52 -41 26 -50 13 -54 -35 -14 -23 20 -42 26 -78 27 -41 1 -60 -7 -123 -45
-70 -44 -80 -47 -179 -58 -168 -17 -207 -28 -355 -100 -77 -38 -158 -74 -180
-80 -88 -27 -133 -58 -174 -119 -22 -32 -52 -88 -66 -123 -18 -44 -41 -80 -75
-113 -35 -35 -50 -57 -50 -76 0 -15 -14 -43 -31 -65 -61 -75 -149 -298 -149
-376 0 -10 -20 -40 -44 -66 -52 -55 -116 -182 -116 -228 0 -31 -1 -32 -53 -36
-83 -7 -146 -43 -182 -104 -17 -29 -50 -67 -74 -85 -33 -27 -51 -52 -80 -119
-43 -98 -91 -176 -212 -340 -116 -159 -139 -195 -139 -226 0 -15 -18 -59 -39
-98 -22 -39 -56 -109 -76 -156 -20 -47 -49 -105 -65 -130 -16 -25 -37 -79 -47
-119 -16 -68 -22 -77 -69 -118 -37 -32 -55 -56 -63 -86 -7 -23 -33 -83 -58
-133 -39 -78 -51 -94 -89 -113 -36 -19 -49 -35 -75 -90 -17 -36 -44 -102 -59
-146 -15 -44 -50 -125 -77 -180 -28 -55 -61 -129 -74 -164 -19 -52 -33 -70
-67 -95 -29 -21 -60 -58 -91 -111 -102 -172 -101 -169 -101 -239 0 -65 0 -66
-27 -66 -57 -1 -143 -187 -143 -310 0 -30 12 -111 26 -180 18 -85 27 -152 26
-209 -1 -55 5 -111 18 -162 25 -96 25 -104 0 -139 -11 -16 -27 -47 -35 -69
l-14 -40 30 -10 c16 -5 29 -15 29 -20 0 -6 -20 -38 -44 -71 -25 -33 -54 -86
-66 -118 -12 -31 -31 -65 -43 -74 -19 -15 -22 -26 -22 -102 0 -72 -3 -88 -21
-108 -12 -13 -24 -36 -28 -52 -6 -26 -2 -34 36 -67 l43 -38 -32 -1 c-21 0 -37
-7 -48 -22 -15 -23 -15 -23 29 -33 24 -5 48 -13 52 -17 15 -15 -30 -47 -82
-59 l-53 -12 14 -26 c32 -61 36 -63 89 -50 44 11 50 10 62 -6 8 -11 14 -39 14
-63 0 -41 2 -44 23 -38 12 3 28 6 35 6 7 0 20 16 29 35 l17 35 28 -27 c26 -25
27 -29 21 -99 -9 -109 13 -254 53 -346 28 -65 34 -93 40 -188 l7 -112 70 -121
70 -122 -11 -75 -10 -74 36 -63 c27 -45 45 -65 67 -73 48 -16 104 -90 117
-155 9 -48 20 -65 85 -135 69 -74 78 -80 114 -80 56 0 145 -48 204 -112 28
-29 102 -87 166 -128 115 -74 116 -76 134 -130 12 -39 32 -71 70 -110 63 -66
194 -303 236 -429 38 -111 40 -221 7 -284 -19 -36 -22 -57 -21 -137 1 -87 4
-101 37 -170 20 -41 36 -89 36 -107 0 -32 1 -33 44 -33 37 0 48 5 65 27 l20
28 40 -23 c22 -12 49 -22 61 -22 30 0 56 -15 119 -68 l53 -46 -6 45 c-20 142
-19 166 6 201 14 18 44 69 68 112 40 76 42 82 36 140 -14 121 -17 649 -6 771
11 116 13 123 75 255 52 109 67 153 80 230 19 115 28 145 68 233 28 63 33 68
73 78 l43 11 15 69 c9 37 16 75 16 83 0 9 29 38 63 66 35 28 71 66 80 84 12
25 36 45 94 77 105 58 166 117 209 201 26 52 34 82 34 121 0 51 1 53 53 94 71
55 139 159 239 363 45 91 90 178 101 193 11 16 23 46 28 68 6 24 24 55 48 79
61 63 119 159 126 211 4 27 2 70 -5 102 -19 82 14 208 90 347 56 103 57 108
74 240 12 91 30 176 57 259 22 70 39 144 39 170 0 25 10 71 22 101 14 38 24
91 29 170 15 222 20 252 52 315 25 51 31 76 37 165 5 83 13 121 37 180 45 110
83 236 83 274 0 38 51 195 74 228 25 35 21 96 -8 119 -32 25 -50 81 -41 127 4
19 24 73 46 117 25 52 39 97 39 121 0 31 9 51 46 97 26 32 54 57 64 57 32 0
50 12 50 32 0 26 104 195 140 228 15 14 33 36 40 49 10 20 10 26 -3 35 -13 10
-12 27 10 146 14 74 27 145 29 158 3 12 35 54 71 93 l67 71 -2 72 -3 71 38 20
c27 15 37 26 35 40 -1 11 -5 52 -9 92 l-6 71 29 4 c25 3 19 7 -37 26 l-66 23
-18 60 c-16 52 -17 69 -7 137 9 54 9 87 2 112 -13 46 -40 249 -40 306 0 59 35
126 99 189 41 40 51 56 51 83 0 75 93 158 222 198 70 22 88 33 116 66 17 22
32 48 32 58 0 18 -21 23 -160 33 -32 2 -38 7 -63 58 -15 31 -32 83 -37 116
-11 79 -32 120 -67 127 -16 4 -78 10 -139 15 -85 7 -121 14 -160 34 -27 13
-78 35 -114 47 -65 23 -150 89 -150 117 0 12 -16 18 -64 25 -14 2 -35 34 -69
102 -47 95 -51 99 -104 123 -61 28 -105 34 -178 24z"/>
<path d="M1904 5335 c-27 -19 -21 -59 12 -73 13 -6 34 -27 46 -47 13 -19 26
-35 29 -35 9 0 29 82 29 115 0 20 -8 29 -35 41 -43 18 -55 18 -81 -1z"/>
<path d="M1711 5202 c-15 -23 -26 -57 -29 -89 -4 -51 -6 -53 -33 -53 -31 0
-35 -10 -19 -39 8 -16 15 -17 56 -8 57 13 71 33 95 135 23 98 24 92 -13 92
-27 0 -38 -7 -57 -38z"/>
<path d="M2002 5127 c-42 -13 -95 -86 -90 -125 2 -22 9 -28 33 -30 27 -3 44
-16 45 -32 0 -3 -30 -4 -66 -2 l-66 4 7 -33 c13 -60 22 -69 68 -69 50 0 92 24
144 80 43 48 75 67 132 76 36 6 41 10 41 33 0 21 -9 32 -39 49 -21 12 -53 22
-71 22 -17 0 -43 9 -57 20 -28 22 -33 23 -81 7z"/>
<path d="M7197 2354 c-4 -4 -7 -22 -7 -39 0 -26 8 -37 45 -64 52 -37 56 -34
59 52 l1 52 -45 3 c-25 2 -49 0 -53 -4z"/>
<path d="M7425 549 c-62 -10 -93 -26 -101 -52 -5 -16 9 -36 68 -93 75 -74 108
-91 153 -80 32 8 33 45 3 95 -13 19 -28 58 -33 86 -12 55 -15 57 -90 44z"/>
</g>
</svg>
